lib/logo_updates/nrk-logo-nrk-2-with-bg.svg

<svg width="204" height="84" viewBox="0 0 204 84" fill="none" xmlns="http://www.w3.org/2000/svg">
<rect width="204" height="84" fill="#78003D"/>
<path d="M20 63V21.0038H33.7802V63H20ZM52.5283 27.6877L60.4532 63H45.3721L35.9092 21.0038H44.3676C46.3072 20.9786 48.1892 21.6624 49.6607 22.9264C51.1347 24.1373 52.1473 25.8184 52.5283 27.6877ZM62.5233 63V21.0038H76.3035V63H62.5233ZM86.7116 36.9743C85.2267 36.9888 83.7656 36.6003 82.4839 35.8504C81.2193 35.1194 80.1688 34.0689 79.438 32.8041C78.6872 31.5222 78.2986 30.0607 78.3134 28.5751C78.2964 27.0986 78.6853 25.6458 79.438 24.3755C80.1766 23.1245 81.2259 22.0853 82.4839 21.3588C83.766 20.6098 85.2269 20.2213 86.7116 20.2348C88.1877 20.2189 89.6399 20.6078 90.9108 21.3588C92.1562 22.0917 93.1943 23.13 93.9271 24.3755C94.6789 25.6462 95.0677 27.0987 95.0517 28.5751C95.0655 30.0605 94.6769 31.5218 93.9271 32.8041C93.202 34.0633 92.1627 35.113 90.9108 35.8504C89.6398 36.6029 88.1866 36.9918 86.7097 36.9743H86.7116ZM97.1807 63V21.0038H110.962V63H97.1807ZM128.408 43.9538C128.447 43.9946 128.742 44.4776 129.295 45.403C129.848 46.3283 130.567 47.5114 131.454 48.952C132.341 50.392 133.277 51.9199 134.262 53.536C135.247 55.1521 136.174 56.6803 137.043 58.1202C137.908 59.5602 138.894 61.1867 140 63H124.859C123.912 61.4621 123.055 60.0721 122.286 58.83C121.517 57.5878 120.7 56.2471 119.833 54.8077C118.965 53.3698 118.107 51.9699 117.259 50.6081C116.41 49.2464 115.681 48.0536 115.071 47.0297C114.459 46.0051 114.035 45.3149 113.799 44.9594C113.214 44.0771 112.868 43.058 112.794 42.0019C112.853 40.9883 113.179 40.0084 113.74 39.1619C113.976 38.7676 114.41 38.0675 115.041 37.062C115.672 36.0564 116.411 34.8637 117.259 33.4835C118.106 32.1034 118.965 30.6936 119.833 29.2543C120.702 27.815 121.519 26.4643 122.286 25.2025C123.056 23.9419 123.914 22.5421 124.859 21.0029H140L128.289 40.1082C127.926 40.6755 127.722 41.3292 127.697 42.0019C127.736 42.7081 127.983 43.3871 128.406 43.9538H128.408Z" fill="white"/>
<path d="M163.904 57.9196C164.841 57.1164 165.804 56.2816 166.821 55.3769C168.24 54.1153 169.669 52.7453 171.108 51.2669C172.547 49.7885 173.917 48.251 175.218 46.6543C176.482 45.1092 177.637 43.4791 178.678 41.7756C179.648 40.1922 180.442 38.5065 181.043 36.7491C181.602 35.1317 181.891 33.4337 181.9 31.7226C181.929 30.1246 181.606 28.5399 180.954 27.0805C180.31 25.7021 179.359 24.4887 178.176 23.5324C176.821 22.4594 175.262 21.6746 173.593 21.226C171.541 20.6654 169.421 20.3966 167.295 20.4277C165.917 20.4241 164.542 20.5428 163.185 20.7825C161.894 21.0107 160.627 21.3571 159.399 21.8174C158.229 22.2559 157.093 22.7797 156 23.3845L156.768 28.5293C157.705 27.9015 158.706 27.3761 159.755 26.9622C160.895 26.5049 162.072 26.1487 163.274 25.8977C164.499 25.6411 165.747 25.5123 166.998 25.5133C168.31 25.4867 169.617 25.6663 170.873 26.0456C171.872 26.3516 172.791 26.8769 173.562 27.5831C174.257 28.231 174.793 29.0303 175.129 29.919C175.474 30.856 175.644 31.8479 175.633 32.8462C175.613 34.5217 175.271 36.1778 174.628 37.7249C173.88 39.5418 172.927 41.2678 171.789 42.8697C170.464 44.7517 169.022 46.549 167.472 48.251C165.817 50.0842 164.013 51.9174 162.061 53.7506C160.11 55.5838 158.089 57.4466 156 59.3389L156.768 63.0053H182.374L183.084 57.9196H163.904Z" fill="#FDAFD7"/>
</svg>

<svg xmlns="http://www.w3.org/2000/svg" viewBox="0 0 204 84"><path fill="#78003D" d="M0 0h204v84H0z"/><path fill="#fff" d="M20 63V21.004h13.78V63H20Zm32.528-35.312L60.453 63h-15.08l-9.464-41.996h8.459a7.965 7.965 0 0 1 5.293 1.922 8.31 8.31 0 0 1 2.867 4.762ZM62.523 63V21.004h13.78V63h-13.78Zm24.189-26.026a8.213 8.213 0 0 1-4.228-1.124 8.336 8.336 0 0 1-3.046-3.046 8.206 8.206 0 0 1-1.125-4.229 8.056 8.056 0 0 1 1.125-4.2 8.437 8.437 0 0 1 3.046-3.016 8.233 8.233 0 0 1 4.228-1.124 8.083 8.083 0 0 1 4.199 1.124 8.504 8.504 0 0 1 3.016 3.016 8.075 8.075 0 0 1 1.125 4.2 8.226 8.226 0 0 1-1.125 4.23 8.4 8.4 0 0 1-3.016 3.045 8.059 8.059 0 0 1-4.201 1.124h.002ZM97.18 63V21.004h13.781V63H97.181Zm31.227-19.046c.039.04.334.524.887 1.449.553.925 1.272 2.108 2.159 3.549a1143.28 1143.28 0 0 1 5.589 9.168A854.89 854.89 0 0 0 140 63h-15.141c-.947-1.538-1.804-2.928-2.573-4.17a388.795 388.795 0 0 1-2.453-4.022 355.984 355.984 0 0 0-2.574-4.2 210.645 210.645 0 0 1-2.188-3.578 62.13 62.13 0 0 0-1.272-2.07 6.127 6.127 0 0 1-1.005-2.958 5.745 5.745 0 0 1 .946-2.84c.236-.394.67-1.094 1.301-2.1.631-1.006 1.37-2.198 2.218-3.578.847-1.38 1.706-2.79 2.574-4.23.869-1.439 1.686-2.79 2.453-4.052.77-1.26 1.628-2.66 2.573-4.2H140l-11.711 19.106a3.773 3.773 0 0 0-.592 1.894c.039.706.286 1.385.709 1.952h.002Z"/><path fill="#FDAFD7" d="M163.904 57.92c.937-.804 1.9-1.638 2.917-2.543a82.405 82.405 0 0 0 4.287-4.11 70.042 70.042 0 0 0 4.11-4.613 43.646 43.646 0 0 0 3.46-4.878 25.29 25.29 0 0 0 2.365-5.027c.559-1.617.848-3.315.857-5.026a10.895 10.895 0 0 0-.946-4.642 10.015 10.015 0 0 0-2.778-3.549 12.686 12.686 0 0 0-4.583-2.306 22.64 22.64 0 0 0-6.298-.798 23.275 23.275 0 0 0-4.11.354 21.396 21.396 0 0 0-3.786 1.035c-1.17.439-2.306.963-3.399 1.567l.768 5.145a15.753 15.753 0 0 1 2.987-1.567 20.956 20.956 0 0 1 3.519-1.064 18.093 18.093 0 0 1 3.724-.385 12.523 12.523 0 0 1 3.875.533 7.03 7.03 0 0 1 2.689 1.537 6.182 6.182 0 0 1 1.567 2.336c.345.937.515 1.929.504 2.927a13.121 13.121 0 0 1-1.005 4.879 25.928 25.928 0 0 1-2.839 5.145 55.114 55.114 0 0 1-4.317 5.381 93.722 93.722 0 0 1-5.411 5.5A452.181 452.181 0 0 1 156 59.339l.768 3.666h25.606l.71-5.085h-19.18Z"/></svg>
